X:51
T:JHNAMST- Johnny Armstrong
S:SMM #356
Q:1/4=120
L:1/4
M:3/4
K:G
(G3/4A/4)|{A/}B2{B/}A|{A/4}(GE)D|DEG|{G/}A2(G3/4A/4)|\
{A/4}B2(A3/4G/4)|(GE)D|{D/4}EG(G3/4A/4)|G2G3/4 A/4|\
{A/4}B2(B3/4A/4|{A/4}BED|(DE) (G3/4A/8B/8)|{B/}A2G3/4A/4|\
{A/}B2(A3/4G/4)|(GE)D|{D/}(EG)(G3/4A/4)|G2||\
(B/d/)|e2(e/4d/4B/)|(AG)A|B(ge)|e/ d3/2B|(AB)d|g2e/d/|\
(Be) (e3/4f/4)|e2d|(e3/4f/4 g)f|(e3/4f/4) (e3/4d/4) (B/e/)|\
(d3/4e/4) (d/4B3/4) (A3/4G/4)|{G/}A2B3/4d/4|\
(e3/4f/4g/e/) (d/B/)|(c3/2 B/) A/ G/|(EG) (G3/4A/4)|G2|]

